rospo-newyear-dark/symbolic/apps/accessories-calculator-symbolic.svg

<svg height="16" width="16" xmlns="http://www.w3.org/2000/svg"><path d="m2 1s-2 0-2 2v11s0 2 2 2h11s2 0 2-2v-11c0-2-2-2-2-2zm0 2h .84 4.16v5h-5v-3.59-.41zm6 0h5v5h-5zm1.44 1c-.34.08-.54.58-.28.84l.65.66-.65.66c-.26.15-.31.56-.1.78.22.21.63.16.78-.1l.66-.65.66.65c.15.26.56.31.78.1.21-.22.16-.63-.1-.78l-.65-.66.65-.66c.26-.23.15-.73-.18-.84-.02 0-.05 0-.07 0-.16-.02-.32.04-.43.16l-.66.65-.66-.65c-.06-.08-.15-.13-.25-.16-.05-.01-.1-.01-.15 0zm-6.44 1v1h1 1 1v-1h-1-1zm-1 4h5v5h-4.16-.84v-1zm6 0h5v4 1h-5zm-4 1v1h-1v1h1v1h1v-1h1v-1h-1v-1zm5 0v1h3v-1zm0 2v1h3v-1z" fill="#d3dae3"/></svg>

<svg xmlns="http://www.w3.org/2000/svg" width="16" height="16" version="1.1">
 <path style="fill:#d3dae3" d="M 2,1 C 2,1 0,1 0,3 V 14 C 0,14 0,16 2,16 H 13 C 13,16 15,16 15,14 V 3 C 15,1 13,1 13,1 Z M 2,3 H 2.84 7 V 8 H 2 V 4.41 4 Z M 8,3 H 13 V 8 H 8 Z M 9.44,4 C 9.1,4.08 8.9,4.58 9.16,4.84 L 9.81,5.5 9.16,6.16 C 8.9,6.31 8.85,6.72 9.06,6.94 9.28,7.15 9.69,7.1 9.84,6.84 L 10.5,6.19 11.16,6.84 C 11.31,7.1 11.72,7.15 11.94,6.94 12.15,6.72 12.1,6.31 11.84,6.16 L 11.19,5.5 11.84,4.84 C 12.1,4.61 11.99,4.11 11.66,4 11.64,4 11.61,4 11.59,4 11.43,3.98 11.27,4.04 11.16,4.16 L 10.5,4.81 9.84,4.16 C 9.78,4.08 9.69,4.03 9.59,4 9.54,3.99 9.49,3.99 9.44,4 Z M 3,5 V 6 H 4 5 6 V 5 H 5 4 Z M 2,9 H 7 V 14 H 2.84 2 V 13 Z M 8,9 H 13 V 13 14 H 8 Z M 4,10 V 11 H 3 V 12 H 4 V 13 H 5 V 12 H 6 V 11 H 5 V 10 Z M 9,10 V 11 H 12 V 10 Z M 9,12 V 13 H 12 V 12 Z"/>
</svg>
